build/img/9-resources/books.svg

<svg width="40" height="40" viewBox="0 0 40 40" fill="none" xmlns="http://www.w3.org/2000/svg">
<g clip-path="url(#clip0)">
<path d="M39.5303 36.8332C39.5301 36.8327 39.53 36.8322 39.5299 36.8317L29.79 0.480574C29.6972 0.135386 29.3426 -0.0698122 28.9971 0.0218378L20.2208 2.37327C20.1004 2.40895 19.9934 2.47968 19.9132 2.57636V1.18328C19.9132 0.824951 19.6227 0.534428 19.2644 0.534428H1.0966C0.738276 0.534428 0.447754 0.824951 0.447754 1.18328V38.8165C0.447754 39.1748 0.738276 39.4654 1.0966 39.4654H19.2644C19.6227 39.4654 19.9132 39.1748 19.9132 38.8165V3.73196L29.5019 39.5192C29.578 39.8028 29.835 40 30.1287 40C30.1847 39.9996 30.2405 39.9922 30.2948 39.978L39.0692 37.6265C39.4156 37.5348 39.622 37.1796 39.5303 36.8332ZM9.53164 38.1677H1.74545V1.83213H9.53164V38.1677ZM18.6155 38.1677H10.8293V1.83213H18.6155V38.1677ZM30.5874 38.557L21.1837 3.45879L28.7045 1.44282L38.1082 36.541L30.5874 38.557Z" fill="#333333"/>
<path d="M7.58491 4.42773H3.69182C3.33349 4.42773 3.04297 4.71826 3.04297 5.07658C3.04297 5.43491 3.33349 5.72543 3.69182 5.72543H7.58491C7.94324 5.72543 8.23376 5.43491 8.23376 5.07658C8.23376 4.71826 7.94324 4.42773 7.58491 4.42773Z" fill="#333333"/>
<path d="M7.58491 7.02295H3.69182C3.33349 7.02295 3.04297 7.31347 3.04297 7.6718C3.04297 8.03013 3.33349 8.32065 3.69182 8.32065H7.58491C7.94324 8.32065 8.23376 8.03013 8.23376 7.6718C8.23376 7.31347 7.94324 7.02295 7.58491 7.02295Z" fill="#333333"/>
<path d="M16.6689 4.42773H12.7758C12.4175 4.42773 12.127 4.71826 12.127 5.07658C12.127 5.43491 12.4175 5.72543 12.7758 5.72543H16.6689C17.0272 5.72543 17.3177 5.43491 17.3177 5.07658C17.3177 4.71826 17.0272 4.42773 16.6689 4.42773Z" fill="#333333"/>
<path d="M16.6689 7.02295H12.7758C12.4175 7.02295 12.127 7.31347 12.127 7.6718C12.127 8.03013 12.4175 8.32065 12.7758 8.32065H16.6689C17.0272 8.32065 17.3177 8.03013 17.3177 7.6718C17.3177 7.31347 17.0272 7.02295 16.6689 7.02295Z" fill="#333333"/>
<path d="M28.3091 4.92563C28.2256 4.57712 27.8754 4.36227 27.527 4.44573C27.5156 4.44848 27.5043 4.45148 27.4932 4.45481L23.7298 5.46182C23.3833 5.55282 23.176 5.90758 23.267 6.25415C23.358 6.60071 23.7128 6.80794 24.0594 6.71694C24.0613 6.71645 24.0633 6.71588 24.0653 6.7154L27.8293 5.70774C28.1778 5.62428 28.3925 5.27414 28.3091 4.92563Z" fill="#333333"/>
<path d="M28.9646 7.41999C28.8718 7.07383 28.5159 6.86847 28.1697 6.96125H28.1672L24.4071 7.96892C24.0605 8.05992 23.8533 8.41468 23.9443 8.76124C24.0353 9.10781 24.39 9.31504 24.7366 9.22404C24.7386 9.22355 24.7405 9.22298 24.7425 9.2225L28.5059 8.21483C28.852 8.12205 29.0574 7.76615 28.9646 7.41999Z" fill="#333333"/>
<path d="M35.3405 31.2337C35.2468 30.8902 34.8941 30.6864 34.5498 30.7768L30.7864 31.7844C30.4403 31.8771 30.2348 32.2328 30.3274 32.579C30.4034 32.8628 30.6607 33.0602 30.9545 33.0601H30.9571C31.0138 33.06 31.0703 33.0526 31.1251 33.038L34.8852 32.0304C35.2309 31.9361 35.4347 31.5794 35.3405 31.2337Z" fill="#333333"/>
<path d="M36.0174 33.741C35.9237 33.3976 35.571 33.1938 35.2267 33.2841L31.4627 34.2918C31.1166 34.3844 30.911 34.7401 31.0037 35.0863C31.0797 35.3702 31.3369 35.5675 31.6308 35.5674C31.6875 35.5675 31.7441 35.5599 31.7988 35.5447L35.5622 34.5377C35.9078 34.4434 36.1116 34.0867 36.0174 33.741Z" fill="#333333"/>
<path d="M16.6689 31.6792H12.7758C12.4175 31.6792 12.127 31.9697 12.127 32.328C12.127 32.6864 12.4175 32.9769 12.7758 32.9769H16.6689C17.0272 32.9769 17.3177 32.6864 17.3177 32.328C17.3177 31.9697 17.0272 31.6792 16.6689 31.6792Z" fill="#333333"/>
<path d="M16.6689 34.2744H12.7758C12.4175 34.2744 12.127 34.5649 12.127 34.9233C12.127 35.2816 12.4175 35.5721 12.7758 35.5721H16.6689C17.0272 35.5721 17.3177 35.2816 17.3177 34.9233C17.3177 34.5649 17.0272 34.2744 16.6689 34.2744Z" fill="#333333"/>
<path d="M7.58491 31.6792H3.69182C3.33349 31.6792 3.04297 31.9697 3.04297 32.328C3.04297 32.6864 3.33349 32.9769 3.69182 32.9769H7.58491C7.94324 32.9769 8.23376 32.6864 8.23376 32.328C8.23376 31.9697 7.94324 31.6792 7.58491 31.6792Z" fill="#333333"/>
<path d="M7.58491 34.2744H3.69182C3.33349 34.2744 3.04297 34.5649 3.04297 34.9233C3.04297 35.2816 3.33349 35.5721 3.69182 35.5721H7.58491C7.94324 35.5721 8.23376 35.2816 8.23376 34.9233C8.23376 34.5649 7.94324 34.2744 7.58491 34.2744Z" fill="#333333"/>
</g>
<defs>
<clipPath id="clip0">
<rect width="40" height="40" fill="white"/>
</clipPath>
</defs>
</svg>

<svg width="40" height="40" fill="none" xmlns="http://www.w3.org/2000/svg"><g clip-path="url(#clip0)" fill="#333"><path d="M39.53 36.833v-.001L29.79.48a.649.649 0 00-.793-.46l-8.776 2.352a.634.634 0 00-.308.203V1.183a.649.649 0 00-.649-.649H1.097a.649.649 0 00-.65.65v37.632c0 .359.291.65.65.65h18.167c.359 0 .65-.291.65-.65V3.732l9.588 35.787a.649.649 0 00.793.459l8.774-2.352a.649.649 0 00.461-.793zM9.532 38.168H1.745V1.832h7.787v36.336zm9.084 0h-7.787V1.832h7.787v36.336zm11.971.389L21.184 3.459l7.52-2.016 9.404 35.098-7.52 2.016z"/><path d="M7.585 4.428H3.692a.649.649 0 000 1.297h3.893a.649.649 0 000-1.297zM7.585 7.023H3.692a.649.649 0 000 1.298h3.893a.649.649 0 000-1.298zM16.669 4.428h-3.893a.649.649 0 000 1.297h3.893a.649.649 0 000-1.297zM16.669 7.023h-3.893a.649.649 0 000 1.298h3.893a.649.649 0 000-1.298zM28.31 4.926a.649.649 0 00-.817-.471L23.73 5.462a.649.649 0 00.33 1.255l.005-.002 3.764-1.007a.649.649 0 00.48-.782zM28.965 7.42a.649.649 0 00-.795-.459h-.003l-3.76 1.008a.649.649 0 00.33 1.255l.006-.002 3.763-1.007a.649.649 0 00.459-.795zM35.34 31.234a.649.649 0 00-.79-.457l-3.764 1.007a.649.649 0 00.168 1.276h.003a.657.657 0 00.168-.022l3.76-1.008a.649.649 0 00.456-.796zM36.017 33.741a.649.649 0 00-.79-.457l-3.764 1.008a.649.649 0 10.336 1.253l3.763-1.007a.649.649 0 00.455-.797zM16.669 31.68h-3.893a.649.649 0 000 1.297h3.893a.649.649 0 000-1.298zM16.669 34.274h-3.893a.649.649 0 000 1.298h3.893a.649.649 0 000-1.298zM7.585 31.68H3.692a.649.649 0 000 1.297h3.893a.649.649 0 000-1.298zM7.585 34.274H3.692a.649.649 0 000 1.298h3.893a.649.649 0 000-1.298z"/></g><defs><clipPath id="clip0"><path fill="#fff" d="M0 0h40v40H0z"/></clipPath></defs></svg>
